X: 25147
T: Mairtin O'Connor's Flying Clog
R: reel
M: 4/4
K: Gmajor
G2 GB dGBd|eGce dBAB|G2 Gd BGAB|cE E2 GEDF|
G2 GB dGBd|eGce d2 cA|cE E2 GEDE|DFAd BG:|
Gd d2 edgd|edgd egdc|Bd d2 edgd|eaag fdcA|
BcdB BccA|E2 cE DGBG|cE E2 GEDE|DFAd BG:|

